X: 31849
T: Paul Sinclair's Beard
R: jig
M: 6/8
K: Amajor
|:Ace aAa|agf ece|fdf ece|dcB BcB|Ace aAa|
agf ece|fdf ecA|1 BAG A3:|2 BAG ABc||
|:d2 B cBA|BAF EAc|d2 B cBA|BcB B2 c|
d2 B cBA|BAF EAc|e2 c BcB|1 A4 Bc:|2 A6||

